X:1
T:[ID 2-37]
T:[ID 2-37]
T:Bezeichnung standardisiert: Polonaise Polon\"aise In dieser Quelle auch als: Polonoise
T:Urheber unbekannt Datum in der hier transkribierten schriftlichen Quelle: 1767
C:Urheber unbekannt
C:Datum in der hier transkribierten schriftlichen Quelle: 1767
L:1/8
M:3/4
K:C
V:1 treble 
V:1
"^O)" C/B,/C/D/{F} EE/C/{C} B,B,/G,/ |"^O)" C/B,/C/D/{F} EE/C/{C} B,B,/G,/ | C/>E/TE G/>B/Tc e>g | %3
 f/g/a/c/ B/c/d/e/{c} BA/G/ |"^O)"!p! g>a .g.f.e.d |!f! c>GA,/4B,/4 C>GA,/4B,/4 CC | %6
"^O)"!p! g>a .g.f.e.d |!f! c>GA,/4B,/4 C>GA,/4B,/4 CC | fd/B/ GG, f2 | e/g/B/d/ c2 z2 :: %10
"^O)" G/^F/G/A/{c} BB/G/{G} FE/D/ |"^O)" G/^F/G/A/{c} BB/G/{G} FE/D/ | G/B/B d/g/g A>c | %13
 B/A/G/^F/ G2 G,2 |"^O)" g>fedec | G,B/c/ d/e/f/e/ dG, |"^O)" g>fedec | G,B/c/ d/e/f/e/ dG, | %18
 EgaFEg | f/e/g/B/ c2 z2 :|"^Trio" !fermata!g2 e2 ge | g/a/g/f/ ef g2 | a/f/e/d/ c/B/A/G/{G} F2 | %23
 E/G/c/B/ c4 ::"^O)" d3/2(e/4f/4) .d.d d3/2e/4f/4 | e3/2f/4g/4 ecdc | %26
"^O)" d3/2(e/4f/4) .d.d d3/2e/4f/4 | e3/2f/4g/4 ecdc | g>e g/e/g/e/ af | %29
 e/a/g/B/{B} c4"^DaCapo Polon\" a/e/ :| %30

